assets/icons/upload-24.svg

<svg width="24" height="24" viewBox="0 0 24 24" fill="none" xmlns="http://www.w3.org/2000/svg">
<path d="M3 14.6316C3 15.7943 3.89543 16.7368 5 16.7368H7C7.55229 16.7368 8 17.2081 8 17.7895C8 18.3708 7.55229 18.8421 7 18.8421H5C2.79086 18.8421 1 16.957 1 14.6316L1 6.21053C1 3.88512 2.79086 2 5 2L19 2C21.2091 2 23 3.88512 23 6.21053V14.6316C23 16.957 21.2091 18.8421 19 18.8421H17.5C16.9477 18.8421 16.5 18.3708 16.5 17.7895C16.5 17.2081 16.9477 16.7368 17.5 16.7368H19C20.1046 16.7368 21 15.7943 21 14.6316V6.21053C21 5.04782 20.1046 4.10526 19 4.10526L5 4.10526C3.89543 4.10526 3 5.04782 3 6.21053L3 14.6316Z" fill="#F2F2F2"/>
<path d="M12.7071 7.57147C12.3166 7.16039 11.6834 7.16039 11.2929 7.57147L6.29289 12.8346C5.90237 13.2457 5.90237 13.9122 6.29289 14.3233C6.68342 14.7343 7.31658 14.7344 7.70711 14.3233L11 10.8571L11 20.9474C11 21.5287 11.4477 22 12 22C12.5523 22 13 21.5287 13 20.9474L13 10.8571L16.2929 14.3233C16.6834 14.7343 17.3166 14.7343 17.7071 14.3233C18.0976 13.9122 18.0976 13.2457 17.7071 12.8346L12.7071 7.57147Z" fill="#F2F2F2"/>
</svg>

<svg xmlns="http://www.w3.org/2000/svg" width="24" height="24" viewBox="0 0 24 24"><path d="M3 14.632c0 1.162.895 2.105 2 2.105h2c.552 0 1 .471 1 1.053 0 .58-.448 1.052-1 1.052H5c-2.21 0-4-1.885-4-4.21V6.21C1 3.885 2.79 2 5 2h14c2.21 0 4 1.885 4 4.21v8.422c0 2.325-1.79 4.21-4 4.21h-1.5c-.552 0-1-.471-1-1.052 0-.582.448-1.053 1-1.053H19c1.105 0 2-.943 2-2.105V6.21c0-1.163-.895-2.106-2-2.106H5c-1.105 0-2 .943-2 2.106v8.42z"/><path d="M12.707 7.571a.965.965 0 00-1.414 0l-5 5.264a1.092 1.092 0 000 1.488.965.965 0 001.414 0L11 10.857v10.09c0 .582.448 1.053 1 1.053s1-.471 1-1.053v-10.09l3.293 3.466a.965.965 0 001.414 0c.39-.41.39-1.077 0-1.488l-5-5.264z"/></svg>
